X: 21731
T: MOYHALL REEL
R: reel
B: K\"ohler's Violin Repository, v.2, 1885 p.173 #1
F: http://www.archive.org/details/klersviolinrepos02rugg
Z: 2012 John Chambers <jc:trillian.mit.edu>
M: C|
L: 1/8
K: C
uG |\
c2(ec) GcEC | FDAD dDAB | c2(ec) GcEC | G,CB,D ECCG |\
c2(ec) GcEC | FDAD dDAB | c2(ec) GcEF | GcBd ecc |]
uf |\
(ec)(gc) aceg | (fd)(ad) bdfa | (ec)(ge) acec | (Gc)Bd (ec)cf |\
(ec)(gc) aceg | (fd)(ad) bdfa | (ec)(gc) ecGE | G,CB,D EC"^Fine.""_D.C."C |]

%%sep 2 1 500

